X: 8
T:BOURREE DE SAINT MAURICE
M:3/4
L:1/8
Q:190
C:Michel FORAY
K:C
ce|g2g2g2|a4a2|g2agfd|1e2c2:|2c4||
|:c2|e2e2c2|d4de|f2gfed|1e2c2:|2c4||
